src/dice.svg

<svg xmlns="http://www.w3.org/2000/svg" viewBox="0 0 12 12"><path d="M10 0H2a2 2 0 0 0-2 2v8a2 2 0 0 0 2 2h8a2 2 0 0 0 2-2V2a2 2 0 0 0-2-2zm.7 10a.71.71 0 0 1-.7.7H2a.71.71 0 0 1-.7-.7V2a.71.71 0 0 1 .7-.7h8a.71.71 0 0 1 .7.7zM6.08 5a1.15 1.15 0 1 0 1.14 1.11A1.15 1.15 0 0 0 6.08 5zM3.79 2.68a1.14 1.14 0 1 0 1.14 1.14 1.14 1.14 0 0 0-1.14-1.14zm4.57 4.57A1.14 1.14 0 1 0 9.5 8.39a1.14 1.14 0 0 0-1.14-1.14z"/></svg>

<svg id="Layer_1" data-name="Layer 1" xmlns="http://www.w3.org/2000/svg" viewBox="0 0 12 12"><title>dice</title><path d="M10,0H2A2,2,0,0,0,0,2v8a2,2,0,0,0,2,2h8a2,2,0,0,0,2-2V2A2,2,0,0,0,10,0Zm.7,10a.71.71,0,0,1-.7.7H2a.71.71,0,0,1-.7-.7V2A.71.71,0,0,1,2,1.3h8a.71.71,0,0,1,.7.7ZM6.08,5A1.15,1.15,0,1,0,7.22,6.11,1.15,1.15,0,0,0,6.08,5ZM3.79,2.68A1.14,1.14,0,1,0,4.93,3.82,1.14,1.14,0,0,0,3.79,2.68ZM8.36,7.25A1.14,1.14,0,1,0,9.5,8.39,1.14,1.14,0,0,0,8.36,7.25Z"/></svg>
